src/assets/logo-scoutr.svg

<?xml version="1.0" encoding="UTF-8"?>
<svg width="93px" height="24px" viewBox="0 0 93 24" version="1.1" xmlns="http://www.w3.org/2000/svg" xmlns:xlink="http://www.w3.org/1999/xlink">
    <title>logo</title>
    <g id="logo" stroke="none" stroke-width="1" fill="none" fill-rule="evenodd">
        <path d="M4.86523077,15.808 L0.00123076923,15.808 C-0.0201025641,17.216 0.235897436,18.432 0.769230769,19.456 C1.3025641,20.48 2.0225641,21.3226667 2.92923077,21.984 C3.83589744,22.6453333 4.88123077,23.1306667 6.06523077,23.44 C7.24923077,23.7493333 8.4705641,23.904 9.72923077,23.904 C11.2865641,23.904 12.6572308,23.7226667 13.8412308,23.36 C15.0252308,22.9973333 16.0172308,22.4906667 16.8172308,21.84 C17.6172308,21.1893333 18.2198974,20.416 18.6252308,19.52 C19.0305641,18.624 19.2332308,17.6533333 19.2332308,16.608 C19.2332308,15.328 18.9612308,14.2773333 18.4172308,13.456 C17.8732308,12.6346667 17.2278974,11.9786667 16.4812308,11.488 C15.7345641,10.9973333 14.9825641,10.64 14.2252308,10.416 C13.4678974,10.192 12.8758974,10.0373333 12.4492308,9.952 C11.0198974,9.58933333 9.8625641,9.29066667 8.97723077,9.056 C8.09189744,8.82133333 7.3985641,8.58666667 6.89723077,8.352 C6.39589744,8.11733333 6.05989744,7.86133333 5.88923077,7.584 C5.7185641,7.30666667 5.63323077,6.944 5.63323077,6.496 C5.63323077,6.00533333 5.73989744,5.6 5.95323077,5.28 C6.1665641,4.96 6.4385641,4.69333333 6.76923077,4.48 C7.09989744,4.26666667 7.46789744,4.11733333 7.87323077,4.032 C8.2785641,3.94666667 8.68389744,3.904 9.08923077,3.904 C9.70789744,3.904 10.2785641,3.95733333 10.8012308,4.064 C11.3238974,4.17066667 11.7878974,4.352 12.1932308,4.608 C12.5985641,4.864 12.9238974,5.216 13.1692308,5.664 C13.4145641,6.112 13.5585641,6.67733333 13.6012308,7.36 L18.4652308,7.36 C18.4652308,6.03733333 18.2145641,4.912 17.7132308,3.984 C17.2118974,3.056 16.5345641,2.29333333 15.6812308,1.696 C14.8278974,1.09866667 13.8518974,0.666666667 12.7532308,0.4 C11.6545641,0.133333333 10.5078974,0 9.31323077,0 C8.28923077,0 7.26523077,0.138666667 6.24123077,0.416 C5.21723077,0.693333333 4.29989744,1.12 3.48923077,1.696 C2.6785641,2.272 2.0225641,2.992 1.52123077,3.856 C1.01989744,4.72 0.769230769,5.73866667 0.769230769,6.912 C0.769230769,7.95733333 0.966564103,8.848 1.36123077,9.584 C1.75589744,10.32 2.27323077,10.9333333 2.91323077,11.424 C3.55323077,11.9146667 4.2785641,12.3146667 5.08923077,12.624 C5.89989744,12.9333333 6.73189744,13.1946667 7.58523077,13.408 C8.41723077,13.6426667 9.2385641,13.856 10.0492308,14.048 C10.8598974,14.24 11.5852308,14.464 12.2252308,14.72 C12.8652308,14.976 13.3825641,15.296 13.7772308,15.68 C14.1718974,16.064 14.3692308,16.5653333 14.3692308,17.184 C14.3692308,17.76 14.2198974,18.2346667 13.9212308,18.608 C13.6225641,18.9813333 13.2492308,19.2746667 12.8012308,19.488 C12.3532308,19.7013333 11.8732308,19.8453333 11.3612308,19.92 C10.8492308,19.9946667 10.3692308,20.032 9.92123077,20.032 C9.25989744,20.032 8.61989744,19.952 8.00123077,19.792 C7.3825641,19.632 6.84389744,19.3866667 6.38523077,19.056 C5.9265641,18.7253333 5.5585641,18.2933333 5.28123077,17.76 C5.00389744,17.2266667 4.86523077,16.576 4.86523077,15.808 Z M31.4376752,12.672 L35.8856752,12.672 C35.8216752,11.6053333 35.5656752,10.6826667 35.1176752,9.904 C34.6696752,9.12533333 34.0883419,8.47466667 33.3736752,7.952 C32.6590086,7.42933333 31.8483419,7.04 30.9416752,6.784 C30.0350086,6.528 29.0910086,6.4 28.1096752,6.4 C26.7656752,6.4 25.5710086,6.624 24.5256752,7.072 C23.4803419,7.52 22.5950086,8.144 21.8696752,8.944 C21.1443419,9.744 20.5950086,10.6933333 20.2216752,11.792 C19.8483419,12.8906667 19.6616752,14.08 19.6616752,15.36 C19.6616752,16.5973333 19.8643419,17.7333333 20.2696752,18.768 C20.6750086,19.8026667 21.2403419,20.6933333 21.9656752,21.44 C22.6910086,22.1866667 23.5710086,22.768 24.6056752,23.184 C25.6403419,23.6 26.7763419,23.808 28.0136752,23.808 C30.2110086,23.808 32.0136752,23.232 33.4216752,22.08 C34.8296752,20.928 35.6830086,19.2533333 35.9816752,17.056 L31.5976752,17.056 C31.4483419,18.08 31.0803419,18.896 30.4936752,19.504 C29.9070086,20.112 29.0696752,20.416 27.9816752,20.416 C27.2776752,20.416 26.6803419,20.256 26.1896752,19.936 C25.6990086,19.616 25.3096752,19.2053333 25.0216752,18.704 C24.7336752,18.2026667 24.5256752,17.6426667 24.3976752,17.024 C24.2696752,16.4053333 24.2056752,15.7973333 24.2056752,15.2 C24.2056752,14.5813333 24.2696752,13.9573333 24.3976752,13.328 C24.5256752,12.6986667 24.7443419,12.1226667 25.0536752,11.6 C25.3630086,11.0773333 25.7630086,10.6506667 26.2536752,10.32 C26.7443419,9.98933333 27.3523419,9.824 28.0776752,9.824 C30.0190086,9.824 31.1390086,10.7733333 31.4376752,12.672 Z M41.0181197,15.136 C41.0181197,14.4746667 41.0821197,13.824 41.2101197,13.184 C41.3381197,12.544 41.5567864,11.9786667 41.8661197,11.488 C42.175453,10.9973333 42.5861197,10.5973333 43.0981197,10.288 C43.6101197,9.97866667 44.2501197,9.824 45.0181197,9.824 C45.7861197,9.824 46.431453,9.97866667 46.9541197,10.288 C47.4767864,10.5973333 47.8927864,10.9973333 48.2021197,11.488 C48.511453,11.9786667 48.7301197,12.544 48.8581197,13.184 C48.9861197,13.824 49.0501197,14.4746667 49.0501197,15.136 C49.0501197,15.7973333 48.9861197,16.4426667 48.8581197,17.072 C48.7301197,17.7013333 48.511453,18.2666667 48.2021197,18.768 C47.8927864,19.2693333 47.4767864,19.6693333 46.9541197,19.968 C46.431453,20.2666667 45.7861197,20.416 45.0181197,20.416 C44.2501197,20.416 43.6101197,20.2666667 43.0981197,19.968 C42.5861197,19.6693333 42.175453,19.2693333 41.8661197,18.768 C41.5567864,18.2666667 41.3381197,17.7013333 41.2101197,17.072 C41.0821197,16.4426667 41.0181197,15.7973333 41.0181197,15.136 Z M36.4741197,15.136 C36.4741197,16.4586667 36.6767864,17.6533333 37.0821197,18.72 C37.487453,19.7866667 38.063453,20.6986667 38.8101197,21.456 C39.5567864,22.2133333 40.4527864,22.7946667 41.4981197,23.2 C42.543453,23.6053333 43.7167864,23.808 45.0181197,23.808 C46.319453,23.808 47.4981197,23.6053333 48.5541197,23.2 C49.6101197,22.7946667 50.511453,22.2133333 51.2581197,21.456 C52.0047864,20.6986667 52.5807864,19.7866667 52.9861197,18.72 C53.391453,17.6533333 53.5941197,16.4586667 53.5941197,15.136 C53.5941197,13.8133333 53.391453,12.6133333 52.9861197,11.536 C52.5807864,10.4586667 52.0047864,9.54133333 51.2581197,8.784 C50.511453,8.02666667 49.6101197,7.44 48.5541197,7.024 C47.4981197,6.608 46.319453,6.4 45.0181197,6.4 C43.7167864,6.4 42.543453,6.608 41.4981197,7.024 C40.4527864,7.44 39.5567864,8.02666667 38.8101197,8.784 C38.063453,9.54133333 37.487453,10.4586667 37.0821197,11.536 C36.6767864,12.6133333 36.4741197,13.8133333 36.4741197,15.136 Z M70.5025642,23.392 L70.5025642,6.848 L65.9585642,6.848 L65.9585642,15.52 C65.9585642,17.2053333 65.6812308,18.416 65.1265642,19.152 C64.5718975,19.888 63.6758975,20.256 62.4385642,20.256 C61.3505642,20.256 60.5932308,19.92 60.1665642,19.248 C59.7398975,18.576 59.5265642,17.5573333 59.5265642,16.192 L59.5265642,6.848 L54.9825642,6.848 L54.9825642,17.024 C54.9825642,18.048 55.0732308,18.9813333 55.2545642,19.824 C55.4358975,20.6666667 55.7505642,21.3813333 56.1985642,21.968 C56.6465642,22.5546667 57.2598975,23.008 58.0385642,23.328 C58.8172308,23.648 59.8145642,23.808 61.0305642,23.808 C61.9905642,23.808 62.9292308,23.5946667 63.8465642,23.168 C64.7638975,22.7413333 65.5105642,22.048 66.0865642,21.088 L66.1825642,21.088 L66.1825642,23.392 L70.5025642,23.392 Z M78.1630087,6.848 L78.1630087,1.888 L73.6190087,1.888 L73.6190087,6.848 L70.8670087,6.848 L70.8670087,9.888 L73.6190087,9.888 L73.6190087,19.648 C73.6190087,20.48 73.7576753,21.152 74.0350087,21.664 C74.312342,22.176 74.6910087,22.5706667 75.1710087,22.848 C75.6510087,23.1253333 76.2056753,23.312 76.8350087,23.408 C77.464342,23.504 78.1310087,23.552 78.8350087,23.552 C79.2830087,23.552 79.7416753,23.5413333 80.2110087,23.52 C80.680342,23.4986667 81.1070087,23.456 81.4910087,23.392 L81.4910087,19.872 C81.2776753,19.9146667 81.0536753,19.9466667 80.8190087,19.968 C80.584342,19.9893333 80.3390087,20 80.0830087,20 C79.3150087,20 78.8030087,19.872 78.5470087,19.616 C78.2910087,19.36 78.1630087,18.848 78.1630087,18.08 L78.1630087,9.888 L81.4910087,9.888 L81.4910087,6.848 L78.1630087,6.848 Z M82.1114531,6.848 L82.1114531,23.392 L86.6554531,23.392 L86.6554531,15.936 C86.6554531,15.1893333 86.7301198,14.496 86.8794531,13.856 C87.0287865,13.216 87.2794531,12.656 87.6314531,12.176 C87.9834531,11.696 88.4474531,11.3173333 89.0234531,11.04 C89.5994531,10.7626667 90.3034531,10.624 91.1354531,10.624 C91.4127865,10.624 91.7007865,10.64 91.9994531,10.672 C92.2981198,10.704 92.5541198,10.7413333 92.7674531,10.784 L92.7674531,6.56 C92.4047865,6.45333333 92.0741198,6.4 91.7754531,6.4 C91.1994531,6.4 90.6447865,6.48533333 90.1114531,6.656 C89.5781198,6.82666667 89.0767865,7.06666667 88.6074531,7.376 C88.1381198,7.68533333 87.7221198,8.05866667 87.3594531,8.496 C86.9967865,8.93333333 86.7087865,9.408 86.4954531,9.92 L86.4314531,9.92 L86.4314531,6.848 L82.1114531,6.848 Z" fill="#000000" fill-rule="nonzero"></path>
    </g>
</svg>

<svg xmlns="http://www.w3.org/2000/svg" width="93" height="24" xmlns:v="https://vecta.io/nano"><path d="M4.865 15.808H.001c-.021 1.408.235 2.624.768 3.648s1.253 1.867 2.16 2.528 1.952 1.147 3.136 1.456 2.405.464 3.664.464c1.557 0 2.928-.181 4.112-.544s2.176-.869 2.976-1.52 1.403-1.424 1.808-2.32.608-1.867.608-2.912c0-1.28-.272-2.331-.816-3.152s-1.189-1.477-1.936-1.968-1.499-.848-2.256-1.072l-1.776-.464-3.472-.896c-.885-.235-1.579-.469-2.08-.704s-.837-.491-1.008-.768-.256-.64-.256-1.088c0-.491.107-.896.32-1.216a2.78 2.78 0 0 1 .816-.8c.331-.213.699-.363 1.104-.448a5.89 5.89 0 0 1 1.216-.128 8.57 8.57 0 0 1 1.712.16c.523.107.987.288 1.392.544s.731.608.976 1.056.389 1.013.432 1.696h4.864c0-1.323-.251-2.448-.752-3.376s-1.179-1.691-2.032-2.288S13.852.667 12.753.4 10.508 0 9.313 0C8.289 0 7.265.139 6.241.416S4.3 1.12 3.489 1.696s-1.467 1.296-1.968 2.16S.769 5.739.769 6.912c0 1.045.197 1.936.592 2.672a5.65 5.65 0 0 0 1.552 1.84c.64.491 1.365.891 2.176 1.2a21.88 21.88 0 0 0 2.496.784l2.464.64a15.49 15.49 0 0 1 2.176.672c.64.256 1.157.576 1.552.96s.592.885.592 1.504c0 .576-.149 1.051-.448 1.424a3.14 3.14 0 0 1-1.12.88 5.01 5.01 0 0 1-1.44.432 10.01 10.01 0 0 1-1.44.112c-.661 0-1.301-.08-1.92-.24s-1.157-.405-1.616-.736-.827-.763-1.104-1.296-.416-1.184-.416-1.952zm26.572-3.136h4.448c-.064-1.067-.32-1.989-.768-2.768a6.25 6.25 0 0 0-1.744-1.952c-.715-.523-1.525-.912-2.432-1.168S29.091 6.4 28.11 6.4c-1.344 0-2.539.224-3.584.672s-1.931 1.072-2.656 1.872-1.275 1.749-1.648 2.848-.56 2.288-.56 3.568c0 1.237.203 2.373.608 3.408s.971 1.925 1.696 2.672 1.605 1.328 2.64 1.744 2.171.624 3.408.624c2.197 0 4-.576 5.408-1.728s2.261-2.827 2.56-5.024h-4.384c-.149 1.024-.517 1.84-1.104 2.448s-1.424.912-2.512.912c-.704 0-1.301-.16-1.792-.48s-.88-.731-1.168-1.232-.496-1.061-.624-1.68-.192-1.227-.192-1.824c0-.619.064-1.243.192-1.872a5.53 5.53 0 0 1 .656-1.728 3.94 3.94 0 0 1 1.2-1.28c.491-.331 1.099-.496 1.824-.496 1.941 0 3.061.949 3.36 2.848zm9.58 2.464a9.93 9.93 0 0 1 .192-1.952 4.98 4.98 0 0 1 .656-1.696c.309-.491.72-.891 1.232-1.2s1.152-.464 1.92-.464 1.413.155 1.936.464.939.709 1.248 1.2a4.98 4.98 0 0 1 .656 1.696 9.93 9.93 0 0 1 .192 1.952 9.69 9.69 0 0 1-.192 1.936c-.128.629-.347 1.195-.656 1.696s-.725.901-1.248 1.2-1.168.448-1.936.448-1.408-.149-1.92-.448-.923-.699-1.232-1.2-.528-1.067-.656-1.696a9.69 9.69 0 0 1-.192-1.936zm-4.544 0c0 1.323.203 2.517.608 3.584s.981 1.979 1.728 2.736 1.643 1.339 2.688 1.744 2.219.608 3.52.608 2.48-.203 3.536-.608 1.957-.987 2.704-1.744 1.323-1.669 1.728-2.736.608-2.261.608-3.584-.203-2.523-.608-3.6-.981-1.995-1.728-2.752-1.648-1.344-2.704-1.76-2.235-.624-3.536-.624-2.475.208-3.52.624-1.941 1.003-2.688 1.76-1.323 1.675-1.728 2.752-.608 2.277-.608 3.6zm34.028 8.256V6.848h-4.544v8.672c0 1.685-.277 2.896-.832 3.632s-1.451 1.104-2.688 1.104c-1.088 0-1.845-.336-2.272-1.008s-.64-1.691-.64-3.056V6.848h-4.544v10.176c0 1.024.091 1.957.272 2.8s.496 1.557.944 2.144 1.061 1.04 1.84 1.36 1.776.48 2.992.48c.96 0 1.899-.213 2.816-.64s1.664-1.12 2.24-2.08h.096v2.304h4.32zm7.66-16.544v-4.96h-4.544v4.96h-2.752v3.04h2.752v9.76c0 .832.139 1.504.416 2.016s.656.907 1.136 1.184 1.035.464 1.664.56 1.296.144 2 .144l1.376-.032c.469-.021.896-.064 1.28-.128v-3.52c-.213.043-.437.075-.672.096l-.736.032c-.768 0-1.28-.128-1.536-.384s-.384-.768-.384-1.536V9.888h3.328v-3.04h-3.328zm3.948 0v16.544h4.544v-7.456c0-.747.075-1.44.224-2.08s.4-1.2.752-1.68.816-.859 1.392-1.136 1.28-.416 2.112-.416c.277 0 .565.016.864.048l.768.112V6.56c-.363-.107-.693-.16-.992-.16-.576 0-1.131.085-1.664.256a6.1 6.1 0 0 0-1.504.72 5.66 5.66 0 0 0-1.248 1.12 5.59 5.59 0 0 0-.864 1.424h-.064V6.848h-4.32z"/></svg>
